X: 16
T:Muiñeira
M:6/8
L:1/8
Q:200
C:J. Montes
R:Muiñeira
B:Leccións de Gaita. OTERO COVELO
K:C
G>AB |: c>dc B>AB | c2 G C>EG | F>DB, D>FA |
G>EC G>AB| c>dc B>AB | c2 G C>EG | F>DB, D>AG |1
C3 G>AB :|2 C2 G G>FE |: E>DE G>FE | D2 A A>GF |
F>EF A>GF | E2 c c>BA | _A2 =A A>GF | E2 F F>ED |
G>EC D>ED |1 C2 G G>FE :|2 C3- C>B,C | D2E F>GA |
A2 G- G>AB | c>Bc A>_A=A | B>AG C>B,C | D2E F>GA |
A2G- G>AB | c>Bc A>_A=A- | A2 G A>GA | G>AG A>GA |
G6- | G6- | G3 ||

